X: 1
T:Londonderry Air (O Danny Boy)  "104 bpm"
M:C
L:1/8
Q:80
C:adapt. Wyatt/Charlesworth
S:Slow Air
K:HP
{g}A2{d}A2B2|
{GdG}c6B2|
{GdG}c2f2{gef}e2c2|  !
{gBd}B2{G}A2{GAG}A4-|
A2{g}A2{GdG}c2d2|
{gef}e6f2|  !
{gef}e2c2{g}A2{d}c2|
{gBd}B4-B4-|
B2{g}A2{d}A2B2|  !
{GdG}c6B2|
{GdG}c2f2{gef}e2c2|
{gBd}B2{d}A2{GAG}A4-|  !
A2{g}A2{d}A2B2|
{GdG}c6d2|
{gcd}c2B2{g}A2{d}B2|  !
{G}A4-A4-|
A2e2{gef}f2g2|
{ag}a6g2|  !
{f}g2f2{gef}e2f2|
{g}e2c2{d}A4-|
A2e2{gfg}f2g2|  !
{ag}a6g2|
{f}g2f2{gef}e2c2|
{gBd}B4-B4-|  !
B2{g}A2{d}A2B2|
{GdG}c6B2|
{GdG}c2f2{gef}e2c2|  !
{gBd}B2{G}A2{GAG}A4-|
A2{g}A2{d}A2B2|
{GdG}c6d2|  !
{gcd}c2B2{g}A2{d}B2|
{G}A4-A4-|
A2|]  !
